X:3336
T:Connaughtman's Rambles
R:jig
Z:Seattle
Z:From O'Neill's
M:6/8
L:1/8
K:D
G|:FAA dAA|BAB dAG|FAA dfe|dBB BAG|
FAA dAA|BAB def|gfe dfe|1 dBB B2A/G/:|2 dBB B2||
e|:fbb faa|fef deg|fbb faa|fed ede|
fbb faa|fef def|gfe dfe|dBB B2:|


